!!!OTL: NUN LEB WOHL DU KLEINE GASSE
!!!ARE: Europa, Mitteleuropa, Deutschland
!!!SCT: B0493
!!!YEM: Copyright 1995, estate of Helmut Schaffrath.
**kern
*ICvox
*Ivox
*M3/4
*k[f#c#g#]
*A:
{8a
8b
=1
4.cc#
8a
8a
8f#
=2
8.f#
16e
4e}
{8e
8a
=3
4.b
8a
8dd
8cc#
=4
4b
4r}
{8.b
16f#
=5
8.a
16g#
4g#
8.b
16f#
=6
8.a
16g#
4g#
4r}
=7
{8.a
16e
8f#
8e
8a
8b
=8
4cc#
4ee
4dd}
=9
{8.cc#
16cc#
8cc#
8e
8.cc#
16b
=10
2a}
==
!!!AGN: Abschieds - Lied
!!!ONB: ESAC (Essen Associative Code) Database: BOEHME
!!!AMT: simple triple
!!!AIN: vox
!!!EED: Helmut Schaffrath
!!!EEV: 1.0
*-
